X:2
T:Largo
C:Antonio Vivaldi
Z:arr. Ian Hayden 2020
L:1/8
M:C
K:D
Q:1/4=60
V:1 scale=1.2
|:d>fg>a d>fg>a|e>cd>e A>ba>g|f>ad>f a>fe>d|e2A2z2a2|
a>fe>d a>fe>d|babb babb|befe befe|agaa agaa|
aded aded|^gaba gfed|ccBA ecBA|acBA ecBA|
abab abab|a2 ^gf edcB|ceac B2 ^g2|a4-a4:|
|:g>eB>e g>bg>e|^A>cF>c e>gf>e|dcB2z2f2|f/B/c/B/ c/B/c/B/ f/B/c/B/ c/B/c/B/|
b/f/g/f/ g/f/g/f/ b/f/g/f/ g/f/g/f/|bfed c2>B2|B4z2d2|d>fg>a d>fa>f|
ecde Agbg|fed2z2a2|abag fed=c|BAG2 z2b2|
bc'ba gfed|cBA2 zceg|f/A/B/A/ B/A/B/A/ f/A/B/A/ B/A/B/A/|\
e/A/B/A/ B/A/B/A/ g/A/B/A/ B/A/B/A/|
f>ga>d Te3d|Hd8:|
V:2 scale=1.2
|:"D"[fd]4-[fd]4|"A"[ec]4-[ec]4|"D"[df]4-[df]4|"A"[ec]4-[ec]4|
"D"[df]4[fa]4|"G"[fb]4-[fb]4|"C#m"[eb]4-[eb]4|"F#m"[ea]4-[ea]4|
"Bm7"[da]4-[da]4|"E7"[d^g]4-[d^g]4|"A"[ce]4-[ce]4|"A"[ce]4-[ce]4|
"A"[ce]4-[ce]4|[ce]4 z4|[ca]4[B^g]4|"A"[ca]4-[ca]4:|
|:"Em"[Be]4-[Be]4|"F#"[^Ac]4-[^Ac]4|"Bm"[Fd]4-[Fd]4|"Bm"[df]4-[df]4|
"Bm"[df]4-[fd]4-|"Bm"[df]2[Bd]2"F#"[^Ac]4|"Bm"[Fd]4-[Fd]4|"D"[df]4-[df]4|
"A"[ce]4-[ce]4|"D"[Af]4-[Af]4|"D"[Af]4-[Af]4|"G"[Bd]4-[Bd]4|
"G"[Bd]4-[Bd]2[gB]2|"A"[ce]4-[ce]4|"D"[df]4-[df]4|"A"[ce]4-[ce]4|
"D"[df]4 "A"[ce]4|"D"[df]8:|
V:3 clef=bass scale=1.2
|:D,2D,2D,2D,2|A,2A,,2A,,2A,,2|D,2D,2D,2D,2|A,2A,,2A,,2A,,2|
D,2D,2D,2D,2|G,2,G,2G,2,G,2|C,2C,2C,2C,2|F,2F,2F,2F,2|
B,,2B,,2B,,2B,,2|E,2E,2E,2E,2|A,,2A,,2A,,2A,,2|A,,2A,,2A,,2A,,2|
A,,2A,,2A,,2A,,2|A,,4 z4|A,,2A,,2E,,2E,,2|A,,4-A,,4:|
|:E,2E,2E,2E,2|F,2F,2F,2F,2|B,,2B,,2B,,2B,,2|B,,2B,,2 B,,2B,,2|
B,,2B,,2 B,,2B,,2|B,,2B,,2F,2F,,2|B,,2B,,2 B,,2B,,2|D,2D,2D,2D,2|
A,,2A,,2A,,2A,,2|D,2D,2D,2D,2|D,2D,2D,2D,2|G,,2G,,2G,,2G,,2|
G,,2G,,2G,,2G,,2|A,,2A,,2A,,2A,,2|A,,2A,,2A,,2A,,2| A,,2A,,2A,,2A,,2| 
D,2D,2A,,2A,,2|HD,8:|
